src/icons/user-group-delete.svg

<svg viewBox="0 0 32 32" xmlns="http://www.w3.org/2000/svg"><path d="m30 26.855073c0 .405797-.09964.608696-.398577.913043l-1.793594 1.826088c-.199288.202898-.49822.405797-.896797.405797-.398576 0-.597865-.10145-.896797-.405797l-3.886121-4.057972-3.886121 3.956522c-.199288.202899-.498221.405797-.896797.405797-.398577 0-.597865-.101449-.896797-.405797l-1.793595-1.826087c-.199288-.202898-.398576-.507246-.398576-.913043s.09964-.608696.398576-.913044l3.886121-3.956522-3.985765-3.855072c-.298932-.202899-.398576-.608696-.398576-.913044 0-.405797.09964-.608696.398576-.913043l1.893239-1.826087c.199288-.202899.49822-.405798.896797-.405798.398576 0 .597864.10145.896797.405798l3.886121 3.956521 3.886121-3.956521c.199288-.202899.498221-.405798.896797-.405798.398577 0 .597865.10145.896797.405798l1.793594 1.826087c.199289.202898.398577.507246.398577.913043s-.09964.608696-.398577.913044l-3.886121 4.057971 3.886121 3.956522c.298933.202898.398577.507246.398577.811594z" fill="#db3236" stroke-width="1.005427"/><g fill="#4285f4" transform="matrix(.99644128 0 0 1.0144928 .007117 -.231885)"><path d="m9.3 12c.8.8 1.8 1.2 2.9 1.2s2.1-.4 2.9-1.2 1.2-1.8 1.2-2.9-.4-2.1-1.2-2.9-1.8-1.2-2.9-1.2-2.1.4-2.9 1.2c-.8.7-1.2 1.7-1.2 2.8 0 1.2.4 2.2 1.2 3zm9.1-4.3c.8 0 1.4-.3 1.9-.8s.8-1.2.8-1.9c0-.8-.3-1.4-.8-1.9s-1.2-.8-1.9-.8c-.8 0-1.4.3-1.9.8s-.8 1.2-.8 1.9c0 .8.3 1.4.8 1.9s1.2.8 1.9.8zm1.3.7c-.4.2-.9.2-1.3.2-.5 0-1-.1-1.4-.2 0 .3.1.5.1.7 0 1-.3 1.9-.9 2.8 1.2 0 2.1.5 2.8 1.4h1.4c.6 0 1.1-.1 1.5-.4s.6-.7.6-1.3c0-2.5-.4-3.8-1.3-3.8 0 0-.2.1-.5.2-.2 0-.6.2-1 .4zm-13.6-.7c.8 0 1.4-.3 1.9-.8s.8-1.2.8-1.9c0-.8-.3-1.5-.8-2-.5-.6-1.2-.8-1.9-.8-.8 0-1.5.2-2 .8-.5.5-.8 1.2-.8 1.9 0 .8.3 1.4.8 1.9.5.6 1.2.9 2 .9z"/><path d="m17.6 21.4-3.2-3.2c-.3-.2-.5-.6-.5-1.1 0-.4.1-.7.4-1.1l1.9-1.8c.3-.3.6-.4 1.1-.4.4 0 .7.1 1.1.4l.8.8c-.1-.3-.2-.6-.4-.8-.2-.3-.4-.6-.7-.9l-.9-.6c-.4-.1-.8-.2-1.2-.2-.1 0-.2.1-.5.2-.2.2-.5.3-.8.5s-.7.4-1.1.5c-.5.2-1 .2-1.5.2s-1-.1-1.4-.2c-.5-.2-.9-.3-1.1-.5-.3-.2-.5-.4-.8-.5-.2-.2-.4-.2-.5-.2-.4 0-.8.1-1.2.2s-.7.3-.9.6c-.3.2-.5.5-.7.9-.2.3-.3.7-.5 1-.1.4-.2.7-.3 1.2-.1.4-.1.8-.2 1.2v1.1c0 .9.3 1.5.8 2s1.2.7 2.1.7zm-9.3-9.6c-.6-.8-.9-1.8-.9-2.8 0-.2 0-.4.1-.7-.5.2-1 .3-1.4.3s-.8-.1-1.3-.2c-.5-.2-.8-.4-1.1-.5-.2-.2-.4-.2-.4-.2-.9 0-1.3 1.3-1.3 3.8 0 .6.2 1 .6 1.3.3.2.8.4 1.4.4h1.4c.8-.9 1.7-1.4 2.9-1.4z"/></g></svg>

<?xml version="1.0" encoding="UTF-8" standalone="no"?>
<svg
   xmlns:dc="http://purl.org/dc/elements/1.1/"
   xmlns:cc="http://creativecommons.org/ns#"
   xmlns:rdf="http://www.w3.org/1999/02/22-rdf-syntax-ns#"
   xmlns:svg="http://www.w3.org/2000/svg"
   xmlns="http://www.w3.org/2000/svg"
   xmlns:sodipodi="http://sodipodi.sourceforge.net/DTD/sodipodi-0.dtd"
   xmlns:inkscape="http://www.inkscape.org/namespaces/inkscape"
   viewBox="0 0 32 32"
   version="1.1"
   id="svg10"
   sodipodi:docname="user-group-delete.svg"
   inkscape:version="0.92.4 5da689c313, 2019-01-14">
  <metadata
     id="metadata16">
    <rdf:RDF>
      <cc:Work
         rdf:about="">
        <dc:format>image/svg+xml</dc:format>
        <dc:type
           rdf:resource="http://purl.org/dc/dcmitype/StillImage" />
        <dc:title />
      </cc:Work>
    </rdf:RDF>
  </metadata>
  <defs
     id="defs14" />
  <sodipodi:namedview
     pagecolor="#ffffff"
     bordercolor="#666666"
     borderopacity="1"
     objecttolerance="10"
     gridtolerance="10"
     guidetolerance="10"
     inkscape:pageopacity="0"
     inkscape:pageshadow="2"
     inkscape:window-width="1366"
     inkscape:window-height="703"
     id="namedview12"
     showgrid="false"
     inkscape:zoom="7.375"
     inkscape:cx="-1.7627119"
     inkscape:cy="16"
     inkscape:window-x="0"
     inkscape:window-y="0"
     inkscape:window-maximized="1"
     inkscape:current-layer="svg10" />
  <g
     id="g827">
    <path
       style="fill:#db3236;fill-opacity:1;stroke-width:1.00542653"
       id="path2"
       d="m 30,26.855073 c 0,0.405797 -0.09964,0.608696 -0.398577,0.913043 l -1.793594,1.826088 c -0.199288,0.202898 -0.49822,0.405797 -0.896797,0.405797 -0.398576,0 -0.597865,-0.10145 -0.896797,-0.405797 l -3.886121,-4.057972 -3.886121,3.956522 c -0.199288,0.202899 -0.498221,0.405797 -0.896797,0.405797 -0.398577,0 -0.597865,-0.101449 -0.896797,-0.405797 l -1.793595,-1.826087 c -0.199288,-0.202898 -0.398576,-0.507246 -0.398576,-0.913043 0,-0.405797 0.09964,-0.608696 0.398576,-0.913044 l 3.886121,-3.956522 -3.985765,-3.855072 c -0.298932,-0.202899 -0.398576,-0.608696 -0.398576,-0.913044 0,-0.405797 0.09964,-0.608696 0.398576,-0.913043 l 1.893239,-1.826087 c 0.199288,-0.202899 0.49822,-0.405798 0.896797,-0.405798 0.398576,0 0.597864,0.10145 0.896797,0.405798 l 3.886121,3.956521 3.886121,-3.956521 c 0.199288,-0.202899 0.498221,-0.405798 0.896797,-0.405798 0.398577,0 0.597865,0.10145 0.896797,0.405798 l 1.793594,1.826087 C 29.800712,16.405797 30,16.710145 30,17.115942 c 0,0.405797 -0.09964,0.608696 -0.398577,0.913044 l -3.886121,4.057971 3.886121,3.956522 C 29.900356,26.246377 30,26.550725 30,26.855073 Z"
       inkscape:connector-curvature="0" />
    <g
       transform="matrix(0.99644128,0,0,1.0144928,0.00711746,-0.2318848)"
       style="fill:#4285f4;fill-opacity:1"
       id="g8">
      <path
         style="fill:#4285f4;fill-opacity:1"
         id="path4"
         d="m 9.3,12 c 0.8,0.8 1.8,1.2 2.9,1.2 1.1,0 2.1,-0.4 2.9,-1.2 0.8,-0.8 1.2,-1.8 1.2,-2.9 C 16.3,8 15.9,7 15.1,6.2 14.3,5.4 13.3,5 12.2,5 11.1,5 10.1,5.4 9.3,6.2 8.5,6.9 8.1,7.9 8.1,9 c 0,1.2 0.4,2.2 1.2,3 z m 9.1,-4.3 c 0.8,0 1.4,-0.3 1.9,-0.8 C 20.8,6.4 21.1,5.7 21.1,5 21.1,4.2 20.8,3.6 20.3,3.1 19.8,2.6 19.1,2.3 18.4,2.3 17.6,2.3 17,2.6 16.5,3.1 16,3.6 15.7,4.3 15.7,5 c 0,0.8 0.3,1.4 0.8,1.9 0.5,0.5 1.2,0.8 1.9,0.8 z m 1.3,0.7 c -0.4,0.2 -0.9,0.2 -1.3,0.2 -0.5,0 -1,-0.1 -1.4,-0.2 0,0.3 0.1,0.5 0.1,0.7 0,1 -0.3,1.9 -0.9,2.8 1.2,0 2.1,0.5 2.8,1.4 h 1.4 c 0.6,0 1.1,-0.1 1.5,-0.4 0.4,-0.3 0.6,-0.7 0.6,-1.3 0,-2.5 -0.4,-3.8 -1.3,-3.8 0,0 -0.2,0.1 -0.5,0.2 -0.2,0 -0.6,0.2 -1,0.4 z M 6.1,7.7 C 6.9,7.7 7.5,7.4 8,6.9 8.5,6.4 8.8,5.7 8.8,5 8.8,4.2 8.5,3.5 8,3 7.5,2.4 6.8,2.2 6.1,2.2 5.3,2.2 4.6,2.4 4.1,3 3.6,3.5 3.3,4.2 3.3,4.9 c 0,0.8 0.3,1.4 0.8,1.9 0.5,0.6 1.2,0.9 2,0.9 z"
         inkscape:connector-curvature="0" />
      <path
         style="fill:#4285f4;fill-opacity:1"
         id="path6"
         d="M 17.6,21.4 14.4,18.2 C 14.1,18 13.9,17.6 13.9,17.1 13.9,16.7 14,16.4 14.3,16 l 1.9,-1.8 c 0.3,-0.3 0.6,-0.4 1.1,-0.4 0.4,0 0.7,0.1 1.1,0.4 L 19.2,15 C 19.1,14.7 19,14.4 18.8,14.2 18.6,13.9 18.4,13.6 18.1,13.3 l -0.9,-0.6 c -0.4,-0.1 -0.8,-0.2 -1.2,-0.2 -0.1,0 -0.2,0.1 -0.5,0.2 -0.2,0.2 -0.5,0.3 -0.8,0.5 -0.3,0.2 -0.7,0.4 -1.1,0.5 -0.5,0.2 -1,0.2 -1.5,0.2 -0.5,0 -1,-0.1 -1.4,-0.2 C 10.2,13.5 9.8,13.4 9.6,13.2 9.3,13 9.1,12.8 8.8,12.7 8.6,12.5 8.4,12.5 8.3,12.5 7.9,12.5 7.5,12.6 7.1,12.7 6.7,12.8 6.4,13 6.2,13.3 5.9,13.5 5.7,13.8 5.5,14.2 5.3,14.5 5.2,14.9 5,15.2 4.9,15.6 4.8,15.9 4.7,16.4 4.6,16.8 4.6,17.2 4.5,17.6 v 1.1 c 0,0.9 0.3,1.5 0.8,2 0.5,0.5 1.2,0.7 2.1,0.7 z M 8.3,11.8 C 7.7,11 7.4,10 7.4,9 7.4,8.8 7.4,8.6 7.5,8.3 7,8.5 6.5,8.6 6.1,8.6 5.7,8.6 5.3,8.5 4.8,8.4 4.3,8.2 4,8 3.7,7.9 3.5,7.7 3.3,7.7 3.3,7.7 2.4,7.7 2,9 2,11.5 c 0,0.6 0.2,1 0.6,1.3 0.3,0.2 0.8,0.4 1.4,0.4 h 1.4 c 0.8,-0.9 1.7,-1.4 2.9,-1.4 z"
         inkscape:connector-curvature="0" />
    </g>
  </g>
</svg>
